images/eye.svg

<svg width="64" height="64" viewBox="0 0 64 64" fill="none" xmlns="http://www.w3.org/2000/svg">
<path fill-rule="evenodd" clip-rule="evenodd" d="M32 7.1731C18.311 7.1731 7.17401 18.3111 7.17401 32.0001C7.17401 45.6891 18.311 56.8271 32 56.8271C45.689 56.8271 56.826 45.6891 56.826 32.0001C56.826 18.3111 45.689 7.1731 32 7.1731ZM32 43.0641C20.4 43.0641 14.145 32.2381 14.145 32.2381C14.145 32.2381 20.4 21.4101 32 21.4101C43.601 21.4101 49.856 32.2381 49.856 32.2381C49.856 32.2381 43.601 43.0641 32 43.0641Z" fill="#4A919E"/>
<path fill-rule="evenodd" clip-rule="evenodd" d="M32 23.0051C26.909 23.0051 22.768 27.1471 22.768 32.2371C22.768 37.3271 26.91 41.4681 32 41.4681C37.09 41.4681 41.232 37.3261 41.232 32.2371C41.232 27.1471 37.091 23.0051 32 23.0051ZM32 38.4691C28.563 38.4691 25.768 35.6731 25.768 32.2381C25.768 28.8011 28.564 26.0061 32 26.0061C35.436 26.0061 38.232 28.8021 38.232 32.2381C38.232 35.6731 35.437 38.4691 32 38.4691Z" fill="#4A919E"/>
<path fill-rule="evenodd" clip-rule="evenodd" d="M34.297 32.6142C33.068 32.6142 32.072 31.6182 32.072 30.3872C32.072 29.2842 32.881 28.3722 33.939 28.1992C33.35 27.9152 32.698 27.7422 32 27.7422C29.52 27.7422 27.506 29.7592 27.506 32.2372C27.506 34.7202 29.52 36.7312 32 36.7312C34.481 36.7312 36.494 34.7202 36.494 32.2372C36.494 31.8792 36.441 31.5352 36.362 31.2012C36.037 32.0282 35.237 32.6142 34.297 32.6142Z" fill="#4A919E"/>
</svg>

<?xml version="1.0" ?><!DOCTYPE svg  PUBLIC '-//W3C//DTD SVG 1.1//EN'  'http://www.w3.org/Graphics/SVG/1.1/DTD/svg11.dtd'><svg enable-background="new 0 0 64 64" height="64px" id="Layer_1" version="1.1" viewBox="0 0 64 64" width="64px" xml:space="preserve" xmlns="http://www.w3.org/2000/svg" xmlns:xlink="http://www.w3.org/1999/xlink"><g><path clip-rule="evenodd" d="M32,7.173C18.311,7.173,7.174,18.311,7.174,32   c0,13.689,11.137,24.827,24.826,24.827c13.689,0,24.826-11.138,24.826-24.827C56.826,18.311,45.689,7.173,32,7.173z M32,43.064   c-11.6,0-17.855-10.826-17.855-10.826S20.4,21.41,32,21.41c11.601,0,17.856,10.828,17.856,10.828S43.601,43.064,32,43.064z" fill-rule="evenodd"/><path clip-rule="evenodd" d="M32,23.005c-5.091,0-9.232,4.142-9.232,9.232c0,5.09,4.142,9.231,9.232,9.231   s9.232-4.142,9.232-9.231C41.232,27.147,37.091,23.005,32,23.005z M32,38.469c-3.437,0-6.232-2.796-6.232-6.231   c0-3.437,2.796-6.232,6.232-6.232s6.232,2.796,6.232,6.232C38.232,35.673,35.437,38.469,32,38.469z" fill-rule="evenodd"/><path clip-rule="evenodd" d="M34.297,32.614c-1.229,0-2.225-0.996-2.225-2.227   c0-1.103,0.809-2.015,1.867-2.188c-0.589-0.284-1.241-0.457-1.939-0.457c-2.48,0-4.494,2.017-4.494,4.495   c0,2.483,2.014,4.494,4.494,4.494c2.481,0,4.494-2.011,4.494-4.494c0-0.358-0.053-0.702-0.132-1.036   C36.037,32.028,35.237,32.614,34.297,32.614z" fill-rule="evenodd"/></g></svg>
